icons/svg/pdf.svg

<svg width="24" height="24" viewBox="0 0 24 24" fill="none" xmlns="http://www.w3.org/2000/svg">
<path d="M11.7894 10.6727L11.7315 10.9377C11.4715 12.1265 11.0065 13.2436 10.364 14.2236M11.7894 10.6727L12.2564 8.53733C12.4179 7.7991 11.6998 7.22063 11.1459 7.64272C10.8488 7.86912 10.7392 8.30834 10.8869 8.67991L11.1324 9.29735C11.3226 9.7756 11.5424 10.2351 11.7894 10.6727ZM11.7894 10.6727C12.3478 11.6619 13.0452 12.5393 13.8534 13.2694M13.8534 13.2694L16.1084 12.983C16.7398 12.9028 17.1981 13.654 16.9139 14.3035C16.7069 14.7769 16.193 14.9519 15.793 14.6852L14.9416 14.1175C14.5603 13.8632 14.1969 13.5796 13.8534 13.2694ZM13.8534 13.2694L13.7576 13.2816C12.5941 13.4293 11.4538 13.7464 10.364 14.2236M10.364 14.2236C9.94662 14.4064 9.53663 14.6126 9.13559 14.8418L7.42978 15.8168C6.95527 16.088 6.85265 16.8109 7.22778 17.2398C7.55954 17.619 8.10737 17.5783 8.39343 17.1532L10.3026 14.316C10.3233 14.2853 10.3437 14.2545 10.364 14.2236Z" stroke="currentColor"/>
<path d="M7.79169 21.25H16.2084C18.1414 21.25 19.7084 19.683 19.7084 17.75V12.2195C19.7084 11.2914 19.3397 10.4013 18.6835 9.74492L12.7152 3.77538C12.0588 3.11885 11.1684 2.75 10.2401 2.75H7.79169C5.85869 2.75 4.29169 4.317 4.29169 6.25V17.75C4.29169 19.683 5.85869 21.25 7.79169 21.25Z" stroke="currentColor" stroke-width="1.5" stroke-linecap="round" stroke-linejoin="round"/>
</svg>

<svg xmlns="http://www.w3.org/2000/svg" width="24" height="24" fill="none" viewBox="0 0 24 24"><path stroke="currentColor" d="m11.79 10.673-.058.265a9.8 9.8 0 0 1-1.368 3.286m1.425-3.551.467-2.136c.162-.738-.556-1.316-1.11-.894-.297.226-.407.665-.26 1.037l.246.617q.286.719.657 1.376Zm0 0a10.4 10.4 0 0 0 2.064 2.596m0 0 2.255-.286c.632-.08 1.09.671.806 1.32-.207.474-.721.649-1.121.382l-.851-.568a9.4 9.4 0 0 1-1.089-.848Zm0 0-.095.013a12.3 12.3 0 0 0-3.394.942m0 0q-.626.274-1.228.618l-1.706.975c-.475.271-.577.994-.202 1.423.332.379.88.338 1.165-.087l1.91-2.837z"/><path stroke="currentColor" stroke-linecap="round" stroke-linejoin="round" stroke-width="1.5" d="M7.792 21.25h8.416a3.5 3.5 0 0 0 3.5-3.5v-5.53a3.5 3.5 0 0 0-1.024-2.475l-5.969-5.97A3.5 3.5 0 0 0 10.24 2.75H7.792a3.5 3.5 0 0 0-3.5 3.5v11.5a3.5 3.5 0 0 0 3.5 3.5"/></svg>
